!!!OTL: Die elfjaehrige Markgraefin Il est venu le petit oysillon
!!!ARE: Europa, Mitteleuropa, France
!!!YOR: 2, S. 294
!!    1921 gedruckt (Neuausgabe)
!!!SCT: Q3053J
!!!YEM: Copyright 1995, estate of Helmut Schaffrath.
**kern
*ICvox
*Ivox
!! Mixed meters:  3/2; 2/2
*M3/2
*k[b-]
*F:
{2f
4g
4g
=1
4a
4f
4cc
8b-
8a
4a
8g
8g
=2
2f}
{2cc
4dd
4dd
=3
4cc
4ee
4.ff
8ff
8ee
8cc
4dd
=4
*M2/2
4cc
8r}
{8cc
4.ff
8ee
=5
4.dd
8dd
8cc
8a
4b-
=6
4.a}
{8g
4f
4g
=7
*M3/2
4a
4dd
4.cc
8b-
8a
8a
8g
8g
=8
*M2/2
4.f}
{8e
4f
4g
=9
*M3/2
4a
4dd
4.cc
8b-
8a
8a
8g
8g
=10
2f}
==
!!!AGN: ???
!! Ungenuegend dokumentiert. Melodievergleich zu Q0053 , anderes Lied.
!!!ONB: ESAC (Essen Associative Code) Database: BALLADE
!!!AMT: irregular
!!!AIN: vox
!!!EED: Helmut Schaffrath
!!!EEV: 1.0
*-
